X: 6593
T: Cattle In The Crops
R: jig
M: 6/8
K: Dmajor
AFA fed|BGB g2B|AFA fed|BcB B2B|
AFA fed|BGB g2g|f/g/af gec|ded d3:|
|:a2a {b}afd|gab a2f|fga agf|gfg efg|
aba afd|gab a2g|f/g/af gec|ded d3:|

